svgs/solid/bell.svg

<svg xmlns="http://www.w3.org/2000/svg" viewBox="0 0 448 512"><!-- Font Awesome Pro 6.0.0-alpha2 by @fontawesome - https://fontawesome.com License - https://fontawesome.com/license (Commercial License) --><path d="M224 512C259.375 512 288 483.375 288 448H160C160 483.375 188.625 512 224 512ZM439.375 362.25C420.125 341.5 383.875 310.25 383.875 208C383.875 130.25 329.5 68.125 256 52.875V32C256 14.375 241.625 0 224 0S192 14.375 192 32V52.875C118.5 68.125 64.125 130.25 64.125 208C64.125 310.25 27.875 341.5 8.625 362.25C2.625 368.75 0 376.5 0 384C0.125 400.375 13 416 32.125 416H415.875C435 416 447.875 400.375 448 384C448 376.5 445.375 368.75 439.375 362.25Z"/></svg>

<svg xmlns="http://www.w3.org/2000/svg" viewBox="0 0 448 512"><!--! Font Awesome Pro 6.0.0-alpha3 by @fontawesome - https://fontawesome.com License - https://fontawesome.com/license (Commercial License) --><path d="M223.1 512C259.4 512 288 483.4 288 448H160C160 483.4 188.6 512 223.1 512zM439.4 362.3c-19.25-20.75-55.5-52-55.5-154.3c0-77.75-54.38-139.9-127.9-155.1V32c0-17.62-14.38-32-32-32S192 14.38 192 32v20.88C118.5 68.13 64.13 130.3 64.13 208c0 102.3-36.25 133.5-55.5 154.3C2.625 368.8 0 376.5 0 384c.125 16.38 13 32 32.13 32h383.8c19.12 0 32-15.62 32.13-32C448 376.5 445.4 368.8 439.4 362.3z"/></svg>
